app/clientComponent/section6_contact/images/right.svg

<svg width="390" height="654" viewBox="0 0 390 654" fill="none" xmlns="http://www.w3.org/2000/svg">
<path d="M167.56 53.5C167.92 53.5 168.1 53.86 168.1 54.58C168.1 55.3 167.92 55.66 167.56 55.66C164.2 55.66 161.68 56.02 160 56.74C158.44 57.46 157.36 58.72 156.76 60.52C156.28 62.2 156.04 64.84 156.04 68.44V168.16C156.04 181.12 152.86 191.26 146.5 198.58C140.26 206.02 131.44 209.74 120.04 209.74C115.72 209.74 112.24 208.84 109.6 207.04C106.84 205.36 105.46 202.96 105.46 199.84C105.46 197.68 106.18 195.76 107.62 194.08C109.06 192.52 111.1 191.74 113.74 191.74C116.38 191.74 118.42 192.46 119.86 193.9C121.3 195.46 122.62 197.56 123.82 200.2C124.66 202.12 125.5 203.56 126.34 204.52C127.18 205.48 128.2 205.96 129.4 205.96C132.52 205.96 134.8 203.74 136.24 199.3C137.8 194.98 138.58 187.84 138.58 177.88V68.08C138.58 64.48 138.16 61.84 137.32 60.16C136.6 58.48 135.1 57.34 132.82 56.74C130.66 56.02 127.24 55.66 122.56 55.66C122.32 55.66 122.2 55.3 122.2 54.58C122.2 53.86 122.32 53.5 122.56 53.5L133.36 53.68C139.12 53.92 143.68 54.04 147.04 54.04C150.28 54.04 154.42 53.92 159.46 53.68L167.56 53.5ZM264.041 154.66C264.401 154.66 264.701 154.96 264.941 155.56C265.181 156.16 265.121 156.58 264.761 156.82L241.181 168.16L240.461 168.34C239.261 168.34 238.181 167.02 237.221 164.38C236.261 161.62 235.721 157.96 235.601 153.4C227.201 163.12 218.321 167.98 208.961 167.98C202.481 167.98 197.441 166 193.841 162.04C190.241 157.96 188.441 152.44 188.441 145.48V118.66C188.441 110.5 186.581 106.42 182.861 106.42C181.661 106.42 179.981 106.9 177.821 107.86H177.641C177.161 107.86 176.801 107.56 176.561 106.96C176.321 106.36 176.381 105.94 176.741 105.7L199.601 95.08L200.321 94.9C200.801 94.9 201.341 95.14 201.941 95.62C202.541 96.1 202.841 96.52 202.841 96.88V137.74C202.841 144.46 204.041 149.5 206.441 152.86C208.961 156.1 212.741 157.72 217.781 157.72C220.781 157.72 223.841 157 226.961 155.56C230.201 154.12 233.081 152.14 235.601 149.62V118.66C235.601 114.46 235.121 111.4 234.161 109.48C233.321 107.44 231.941 106.42 230.021 106.42C228.941 106.42 227.261 106.9 224.981 107.86H224.801C224.321 107.86 223.961 107.56 223.721 106.96C223.481 106.24 223.601 105.82 224.081 105.7L246.761 95.08C247.001 94.96 247.301 94.9 247.661 94.9C248.141 94.9 248.681 95.14 249.281 95.62C249.881 96.1 250.181 96.52 250.181 96.88V145.66C250.181 149.86 250.601 152.8 251.441 154.48C252.281 156.16 253.661 157 255.581 157C257.021 157 259.721 156.28 263.681 154.84L264.041 154.66ZM285.277 105.88C285.277 109.6 286.537 112.72 289.057 115.24C291.697 117.76 295.477 120.4 300.397 123.16C304.717 125.56 308.017 127.54 310.297 129.1C312.697 130.66 314.737 132.76 316.417 135.4C318.217 138.04 319.117 141.22 319.117 144.94C319.117 149.02 318.097 152.8 316.057 156.28C314.017 159.76 310.957 162.58 306.877 164.74C302.917 166.9 298.177 167.98 292.657 167.98C286.057 167.98 279.997 166.3 274.477 162.94C273.757 162.22 273.397 161.5 273.397 160.78L273.037 144.22C273.037 143.86 273.337 143.68 273.937 143.68C274.657 143.56 275.077 143.62 275.197 143.86C277.237 149.86 280.297 154.78 284.377 158.62C288.577 162.46 293.017 164.38 297.697 164.38C300.697 164.38 303.037 163.6 304.717 162.04C306.397 160.48 307.237 158.14 307.237 155.02C307.237 150.46 305.917 146.86 303.277 144.22C300.637 141.46 296.797 138.76 291.757 136.12C287.677 133.96 284.497 132.16 282.217 130.72C279.937 129.16 277.957 127.12 276.277 124.6C274.717 121.96 273.937 118.72 273.937 114.88C273.937 108.04 276.397 102.94 281.317 99.58C286.357 96.22 292.417 94.54 299.497 94.54C304.177 94.54 308.977 95.44 313.897 97.24C314.977 97.72 315.517 98.38 315.517 99.22C315.517 101.98 315.457 104.14 315.337 105.7L315.157 114.34C315.157 114.7 314.797 114.88 314.077 114.88C313.357 114.88 312.997 114.7 312.997 114.34C312.997 111.94 312.037 109.48 310.117 106.96C308.197 104.32 305.737 102.16 302.737 100.48C299.737 98.8 296.677 97.96 293.557 97.96C288.037 97.96 285.277 100.6 285.277 105.88ZM383.362 154.48C383.722 154.48 384.022 154.72 384.262 155.2C384.622 155.68 384.622 156.04 384.262 156.28C379.822 160.48 375.622 163.54 371.662 165.46C367.702 167.26 363.502 168.16 359.062 168.16C353.902 168.16 349.522 166.96 345.922 164.56C342.442 162.04 340.702 157.9 340.702 152.14V111.46C340.702 107.5 340.042 104.86 338.722 103.54C337.522 102.22 335.122 101.56 331.522 101.56C331.402 101.56 331.222 101.44 330.982 101.2C330.862 100.84 330.802 100.48 330.802 100.12C330.802 99.76 330.862 99.46 330.982 99.22C331.222 98.86 331.402 98.68 331.522 98.68C342.802 98.2 349.882 93.34 352.762 84.1C353.002 83.62 353.482 83.38 354.202 83.38C355.042 83.38 355.462 83.62 355.462 84.1V98.32C361.102 98.2 369.082 97.6 379.402 96.52C379.642 96.52 379.882 97 380.122 97.96C380.482 98.8 380.662 99.76 380.662 100.84C380.662 101.92 380.422 103 379.942 104.08C379.582 105.16 379.162 105.64 378.682 105.52C371.962 103.96 364.222 103 355.462 102.64V146.2C355.462 150.88 356.602 154.36 358.882 156.64C361.282 158.8 364.582 159.88 368.782 159.88C373.822 159.88 378.562 158.14 383.002 154.66L383.362 154.48ZM144.52 290.58C144.52 295.02 145.6 298.98 147.76 302.46C150.04 305.82 152.8 308.76 156.04 311.28C159.4 313.8 163.9 316.8 169.54 320.28C175.66 324.12 180.46 327.42 183.94 330.18C187.54 332.94 190.54 336.36 192.94 340.44C195.46 344.4 196.72 349.08 196.72 354.48C196.72 360.6 195.1 366.06 191.86 370.86C188.74 375.66 184.24 379.44 178.36 382.2C172.6 384.84 166 386.16 158.56 386.16C153.52 386.16 148.3 385.5 142.9 384.18C137.62 382.86 133.6 381.24 130.84 379.32C129.76 378.6 129.16 377.46 129.04 375.9L127.96 348.54V348.36C127.96 347.88 128.26 347.64 128.86 347.64C129.46 347.52 129.82 347.7 129.94 348.18C133.9 358.14 138.4 366.3 143.44 372.66C148.6 379.02 155.14 382.2 163.06 382.2C168.22 382.2 172.54 380.82 176.02 378.06C179.5 375.18 181.24 370.44 181.24 363.84C181.24 358.56 180.04 353.94 177.64 349.98C175.36 346.02 172.48 342.72 169 340.08C165.64 337.44 161.02 334.2 155.14 330.36C149.38 326.64 144.88 323.52 141.64 321C138.4 318.36 135.64 315.18 133.36 311.46C131.08 307.62 129.94 303.18 129.94 298.14C129.94 291.9 131.68 286.62 135.16 282.3C138.64 277.98 143.14 274.8 148.66 272.76C154.3 270.6 160.18 269.52 166.3 269.52C170.38 269.52 174.46 269.94 178.54 270.78C182.62 271.5 186.04 272.46 188.8 273.66C190.6 274.38 191.5 275.52 191.5 277.08L192.04 301.56C192.04 301.92 191.68 302.16 190.96 302.28C190.36 302.4 190 302.28 189.88 301.92C187.48 294.6 184.24 288 180.16 282.12C176.2 276.12 170.2 273.12 162.16 273.12C156.76 273.12 152.44 274.68 149.2 277.8C146.08 280.92 144.52 285.18 144.52 290.58ZM281.47 374.28C281.95 374.28 282.25 374.58 282.37 375.18C282.49 375.66 282.31 376.02 281.83 376.26L263.29 385.08C262.81 385.32 262.27 385.44 261.67 385.44C259.87 385.44 258.13 384.42 256.45 382.38C254.89 380.22 253.87 377.4 253.39 373.92L245.11 379.68C242.23 381.72 239.59 383.16 237.19 384C234.91 384.84 232.33 385.26 229.45 385.26C224.53 385.26 220.75 384.12 218.11 381.84C215.59 379.44 214.33 376.32 214.33 372.48C214.33 369.24 215.17 366.6 216.85 364.56C218.65 362.52 220.87 360.9 223.51 359.7C226.27 358.38 230.29 356.76 235.57 354.84L253.03 348.36V337.56C253.03 330.12 252.25 324.72 250.69 321.36C249.25 317.88 246.91 316.14 243.67 316.14C239.71 316.14 236.83 317.64 235.03 320.64C233.35 323.52 232.33 326.76 231.97 330.36C231.25 336.48 228.19 339.54 222.79 339.54C220.15 339.54 218.17 338.94 216.85 337.74C215.65 336.54 215.05 335.04 215.05 333.24C215.05 329.88 217.03 326.64 220.99 323.52C225.07 320.28 229.93 317.7 235.57 315.78C241.33 313.74 246.37 312.72 250.69 312.72C255.85 312.72 259.93 314.34 262.93 317.58C266.05 320.82 267.61 325.68 267.61 332.16V364.56C267.61 368.28 268.21 371.1 269.41 373.02C270.61 374.94 272.35 375.9 274.63 375.9C276.43 375.9 278.59 375.36 281.11 374.28H281.47ZM253.03 371.04V369.24V351.42L242.23 355.92C239.11 357.12 236.53 358.56 234.49 360.24C232.57 361.8 231.61 364.08 231.61 367.08C231.61 369.96 232.51 372.3 234.31 374.1C236.23 375.78 238.51 376.62 241.15 376.62C243.31 376.62 245.59 375.9 247.99 374.46L253.03 371.04ZM359.426 314.52C359.666 314.52 359.786 314.88 359.786 315.6C359.786 316.32 359.666 316.68 359.426 316.68C355.826 316.68 352.706 318.12 350.066 321C347.546 323.88 345.206 328.26 343.046 334.14L322.346 389.04C318.026 400.56 313.886 409.62 309.926 416.22C305.966 422.82 301.946 427.5 297.866 430.26C293.786 433.14 289.286 434.58 284.366 434.58C281.006 434.58 278.426 433.86 276.626 432.42C274.706 431.1 273.746 429.06 273.746 426.3C273.746 423.9 274.526 422.04 276.086 420.72C277.526 419.52 279.326 418.92 281.486 418.92C282.926 418.92 284.126 419.1 285.086 419.46C286.166 419.94 287.246 420.54 288.326 421.26C289.526 421.98 290.546 422.52 291.386 422.88C292.346 423.24 293.486 423.42 294.806 423.42C297.566 423.42 300.086 422.28 302.366 420C304.766 417.84 307.226 414.18 309.746 409.02C312.386 403.86 315.506 396.54 319.106 387.06L290.666 329.46C288.026 324.3 285.926 320.88 284.366 319.2C282.926 317.52 281.126 316.68 278.966 316.68C278.606 316.68 278.426 316.32 278.426 315.6C278.426 314.88 278.606 314.52 278.966 314.52C282.086 314.52 284.486 314.58 286.166 314.7L293.186 314.88L305.426 314.7C307.226 314.58 309.686 314.52 312.806 314.52C313.166 314.52 313.346 314.88 313.346 315.6C313.346 316.32 313.166 316.68 312.806 316.68C309.566 316.68 307.166 316.98 305.606 317.58C304.166 318.06 303.446 319.02 303.446 320.46C303.446 321.54 303.746 322.62 304.346 323.7L326.306 369.06L338.366 334.14C339.446 331.02 339.986 328.38 339.986 326.22C339.986 319.86 335.966 316.68 327.926 316.68C327.686 316.68 327.566 316.32 327.566 315.6C327.566 314.88 327.686 314.52 327.926 314.52C331.166 314.52 333.626 314.58 335.306 314.7L346.106 314.88L353.126 314.7C354.446 314.58 356.546 314.52 359.426 314.52ZM246.22 599.84C246.58 599.84 246.76 600.2 246.76 600.92C246.76 601.64 246.58 602 246.22 602C242.14 602 238.84 601.94 236.32 601.82L223.18 601.64L207.88 601.82C205.72 601.94 202.84 602 199.24 602C198.88 602 198.7 601.64 198.7 600.92C198.7 600.2 198.88 599.84 199.24 599.84C203.8 599.84 207.1 599.54 209.14 598.94C211.18 598.34 212.56 597.2 213.28 595.52C214 593.84 214.36 591.14 214.36 587.42V545.84H152.62V587.42C152.62 591.02 152.98 593.72 153.7 595.52C154.42 597.2 155.8 598.34 157.84 598.94C160 599.54 163.36 599.84 167.92 599.84C168.16 599.84 168.28 600.2 168.28 600.92C168.28 601.64 168.16 602 167.92 602C163.84 602 160.66 601.94 158.38 601.82L143.44 601.64L130.3 601.82C128.02 601.94 124.84 602 120.76 602C120.52 602 120.4 601.64 120.4 600.92C120.4 600.2 120.52 599.84 120.76 599.84C125.08 599.84 128.26 599.54 130.3 598.94C132.34 598.34 133.72 597.2 134.44 595.52C135.16 593.72 135.52 591.02 135.52 587.42V504.08C135.52 500.48 135.16 497.84 134.44 496.16C133.72 494.48 132.34 493.34 130.3 492.74C128.26 492.02 125.14 491.66 120.94 491.66C120.7 491.66 120.58 491.3 120.58 490.58C120.58 489.86 120.7 489.5 120.94 489.5L130.48 489.68C136 489.92 140.32 490.04 143.44 490.04C147.64 490.04 152.62 489.92 158.38 489.68L167.92 489.5C168.16 489.5 168.28 489.86 168.28 490.58C168.28 491.3 168.16 491.66 167.92 491.66C163.48 491.66 160.18 492.02 158.02 492.74C155.98 493.46 154.54 494.72 153.7 496.52C152.98 498.2 152.62 500.84 152.62 504.44V541.16H214.36V504.44C214.36 500.84 214 498.2 213.28 496.52C212.56 494.72 211.12 493.46 208.96 492.74C206.92 492.02 203.68 491.66 199.24 491.66C198.88 491.66 198.7 491.3 198.7 490.58C198.7 489.86 198.88 489.5 199.24 489.5L207.88 489.68C213.64 489.92 218.74 490.04 223.18 490.04C226.42 490.04 230.8 489.92 236.32 489.68L246.22 489.5C246.58 489.5 246.76 489.86 246.76 490.58C246.76 491.3 246.58 491.66 246.22 491.66C241.9 491.66 238.72 492.02 236.68 492.74C234.76 493.34 233.44 494.48 232.72 496.16C232 497.84 231.64 500.48 231.64 504.08V587.42C231.64 591.02 232 593.72 232.72 595.52C233.44 597.2 234.76 598.34 236.68 598.94C238.72 599.54 241.9 599.84 246.22 599.84ZM276.589 511.82C273.469 511.82 271.009 510.98 269.209 509.3C267.529 507.62 266.689 505.22 266.689 502.1C266.689 499.1 267.529 496.82 269.209 495.26C271.009 493.58 273.469 492.74 276.589 492.74C279.589 492.74 281.929 493.58 283.609 495.26C285.289 496.82 286.129 499.1 286.129 502.1C286.129 505.22 285.289 507.62 283.609 509.3C282.049 510.98 279.709 511.82 276.589 511.82ZM260.029 602C259.669 602 259.489 601.64 259.489 600.92C259.489 600.2 259.669 599.84 260.029 599.84C264.109 599.84 266.809 599 268.129 597.32C269.449 595.64 270.109 592.34 270.109 587.42V554.66C270.109 550.58 269.689 547.64 268.849 545.84C268.009 543.92 266.569 542.96 264.529 542.96C262.729 542.96 260.389 543.68 257.509 545.12H257.329C256.849 545.12 256.489 544.82 256.249 544.22C256.009 543.62 256.069 543.2 256.429 542.96L282.349 530.9L282.889 530.72C283.369 530.72 283.849 531.02 284.329 531.62C284.929 532.1 285.229 532.52 285.229 532.88V536.66C284.989 541.7 284.869 547.64 284.869 554.48V587.42C284.869 592.34 285.529 595.64 286.849 597.32C288.289 599 291.049 599.84 295.129 599.84C295.489 599.84 295.669 600.2 295.669 600.92C295.669 601.64 295.489 602 295.129 602C292.129 602 289.729 601.94 287.929 601.82L277.489 601.64L267.049 601.82C265.369 601.94 263.029 602 260.029 602ZM354.169 490.94C353.929 490.34 355.009 489.86 357.409 489.5C359.929 489.02 362.569 488.78 365.329 488.78C367.969 488.78 370.549 489.02 373.069 489.5C375.589 489.86 376.729 490.34 376.489 490.94C374.089 500.66 372.229 511.28 370.909 522.8C369.709 534.2 368.569 548.06 367.489 564.38L367.309 567.98C367.309 568.46 366.529 568.7 364.969 568.7C363.289 568.7 362.449 568.46 362.449 567.98C361.609 551.18 360.589 536.72 359.389 524.6C358.309 512.36 356.569 501.14 354.169 490.94ZM364.249 603.98C361.249 603.98 358.849 603.08 357.049 601.28C355.249 599.48 354.349 597.08 354.349 594.08C354.349 591.2 355.249 588.92 357.049 587.24C358.849 585.56 361.249 584.72 364.249 584.72C367.369 584.72 369.769 585.56 371.449 587.24C373.129 588.92 373.969 591.2 373.969 594.08C373.969 597.2 373.129 599.66 371.449 601.46C369.769 603.14 367.369 603.98 364.249 603.98Z" fill="#4971FF"/>
</svg>

<svg xmlns="http://www.w3.org/2000/svg" width="390" height="654" fill="none" xmlns:v="https://vecta.io/nano"><path d="M167.56 53.5c.36 0 .54.36.54 1.08s-.18 1.08-.54 1.08c-3.36 0-5.88.36-7.56 1.08-1.56.72-2.64 1.98-3.24 3.78-.48 1.68-.72 4.32-.72 7.92v99.72c0 12.96-3.18 23.1-9.54 30.42-6.24 7.44-15.06 11.16-26.46 11.16-4.32 0-7.8-.9-10.44-2.7-2.76-1.68-4.14-4.08-4.14-7.2 0-2.16.72-4.08 2.16-5.76 1.44-1.56 3.48-2.34 6.12-2.34s4.68.72 6.12 2.16c1.44 1.56 2.76 3.66 3.96 6.3.84 1.92 1.68 3.36 2.52 4.32s1.86 1.44 3.06 1.44c3.12 0 5.4-2.22 6.84-6.66 1.56-4.32 2.34-11.46 2.34-21.42V68.08c0-3.6-.42-6.24-1.26-7.92-.72-1.68-2.22-2.82-4.5-3.42-2.16-.72-5.58-1.08-10.26-1.08-.24 0-.36-.36-.36-1.08s.12-1.08.36-1.08l10.8.18c5.76.24 10.32.36 13.68.36 3.24 0 7.38-.12 12.42-.36l8.1-.18zm96.481 101.16c.36 0 .66.3.9.9s.18 1.02-.18 1.26l-23.58 11.34-.72.18c-1.2 0-2.28-1.32-3.24-3.96-.96-2.76-1.5-6.42-1.62-10.98-8.4 9.72-17.28 14.58-26.64 14.58-6.48 0-11.52-1.98-15.12-5.94-3.6-4.08-5.4-9.6-5.4-16.56v-26.82c0-8.16-1.86-12.24-5.58-12.24-1.2 0-2.88.48-5.04 1.44h-.18c-.48 0-.84-.3-1.08-.9s-.18-1.02.18-1.26l22.86-10.62.72-.18c.48 0 1.02.24 1.62.72s.9.9.9 1.26v40.86c0 6.72 1.2 11.76 3.6 15.12 2.52 3.24 6.3 4.86 11.34 4.86 3 0 6.06-.72 9.18-2.16 3.24-1.44 6.12-3.42 8.64-5.94v-30.96c0-4.2-.48-7.26-1.44-9.18-.84-2.04-2.22-3.06-4.14-3.06-1.08 0-2.76.48-5.04 1.44h-.18c-.48 0-.84-.3-1.08-.9-.24-.72-.12-1.14.36-1.26l22.68-10.62c.24-.12.54-.18.9-.18.48 0 1.02.24 1.62.72s.9.9.9 1.26v48.78c0 4.2.42 7.14 1.26 8.82s2.22 2.52 4.14 2.52c1.44 0 4.14-.72 8.1-2.16l.36-.18zm21.236-48.78c0 3.72 1.26 6.84 3.78 9.36 2.64 2.52 6.42 5.16 11.34 7.92 4.32 2.4 7.62 4.38 9.9 5.94 2.4 1.56 4.44 3.66 6.12 6.3 1.8 2.64 2.7 5.82 2.7 9.54 0 4.08-1.02 7.86-3.06 11.34s-5.1 6.3-9.18 8.46c-3.96 2.16-8.7 3.24-14.22 3.24-6.6 0-12.66-1.68-18.18-5.04-.72-.72-1.08-1.44-1.08-2.16l-.36-16.56c0-.36.3-.54.9-.54.72-.12 1.14-.06 1.26.18 2.04 6 5.1 10.92 9.18 14.76 4.2 3.84 8.64 5.76 13.32 5.76 3 0 5.34-.78 7.02-2.34s2.52-3.9 2.52-7.02c0-4.56-1.32-8.16-3.96-10.8-2.64-2.76-6.48-5.46-11.52-8.1-4.08-2.16-7.26-3.96-9.54-5.4-2.28-1.56-4.26-3.6-5.94-6.12-1.56-2.64-2.34-5.88-2.34-9.72 0-6.84 2.46-11.94 7.38-15.3 5.04-3.36 11.1-5.04 18.18-5.04 4.68 0 9.48.9 14.4 2.7 1.08.48 1.62 1.14 1.62 1.98 0 2.76-.06 4.92-.18 6.48l-.18 8.64c0 .36-.36.54-1.08.54s-1.08-.18-1.08-.54c0-2.4-.96-4.86-2.88-7.38-1.92-2.64-4.38-4.8-7.38-6.48s-6.06-2.52-9.18-2.52c-5.52 0-8.28 2.64-8.28 7.92zm98.085 48.6c.36 0 .66.24.9.72.36.48.36.84 0 1.08-4.44 4.2-8.64 7.26-12.6 9.18-3.96 1.8-8.16 2.7-12.6 2.7-5.16 0-9.54-1.2-13.14-3.6-3.48-2.52-5.22-6.66-5.22-12.42v-40.68c0-3.96-.66-6.6-1.98-7.92-1.2-1.32-3.6-1.98-7.2-1.98-.12 0-.3-.12-.54-.36-.12-.36-.18-.72-.18-1.08s.06-.66.18-.9c.24-.36.42-.54.54-.54 11.28-.48 18.36-5.34 21.24-14.58.24-.48.72-.72 1.44-.72.84 0 1.26.24 1.26.72v14.22c5.64-.12 13.62-.72 23.94-1.8.24 0 .48.48.72 1.44.36.84.54 1.8.54 2.88s-.24 2.16-.72 3.24c-.36 1.08-.78 1.56-1.26 1.44-6.72-1.56-14.46-2.52-23.22-2.88v43.56c0 4.68 1.14 8.16 3.42 10.44 2.4 2.16 5.7 3.24 9.9 3.24 5.04 0 9.78-1.74 14.22-5.22l.36-.18zM144.52 290.58c0 4.44 1.08 8.4 3.24 11.88 2.28 3.36 5.04 6.3 8.28 8.82 3.36 2.52 7.86 5.52 13.5 9 6.12 3.84 10.92 7.14 14.4 9.9 3.6 2.76 6.6 6.18 9 10.26 2.52 3.96 3.78 8.64 3.78 14.04 0 6.12-1.62 11.58-4.86 16.38-3.12 4.8-7.62 8.58-13.5 11.34-5.76 2.64-12.36 3.96-19.8 3.96-5.04 0-10.26-.66-15.66-1.98-5.28-1.32-9.3-2.94-12.06-4.86-1.08-.72-1.68-1.86-1.8-3.42l-1.08-27.36v-.18c0-.48.3-.72.9-.72.6-.12.96.06 1.08.54 3.96 9.96 8.46 18.12 13.5 24.48 5.16 6.36 11.7 9.54 19.62 9.54 5.16 0 9.48-1.38 12.96-4.14 3.48-2.88 5.22-7.62 5.22-14.22 0-5.28-1.2-9.9-3.6-13.86-2.28-3.96-5.16-7.26-8.64-9.9-3.36-2.64-7.98-5.88-13.86-9.72-5.76-3.72-10.26-6.84-13.5-9.36-3.24-2.64-6-5.82-8.28-9.54-2.28-3.84-3.42-8.28-3.42-13.32 0-6.24 1.74-11.52 5.22-15.84s7.98-7.5 13.5-9.54c5.64-2.16 11.52-3.24 17.64-3.24 4.08 0 8.16.42 12.24 1.26 4.08.72 7.5 1.68 10.26 2.88 1.8.72 2.7 1.86 2.7 3.42l.54 24.48c0 .36-.36.6-1.08.72-.6.12-.96 0-1.08-.36-2.4-7.32-5.64-13.92-9.72-19.8-3.96-6-9.96-9-18-9-5.4 0-9.72 1.56-12.96 4.68-3.12 3.12-4.68 7.38-4.68 12.78zm136.95 83.7c.48 0 .78.3.9.9.12.48-.06.84-.54 1.08l-18.54 8.82c-.48.24-1.02.36-1.62.36-1.8 0-3.54-1.02-5.22-3.06-1.56-2.16-2.58-4.98-3.06-8.46l-8.28 5.76c-2.88 2.04-5.52 3.48-7.92 4.32-2.28.84-4.86 1.26-7.74 1.26-4.92 0-8.7-1.14-11.34-3.42-2.52-2.4-3.78-5.52-3.78-9.36 0-3.24.84-5.88 2.52-7.92 1.8-2.04 4.02-3.66 6.66-4.86 2.76-1.32 6.78-2.94 12.06-4.86l17.46-6.48v-10.8c0-7.44-.78-12.84-2.34-16.2-1.44-3.48-3.78-5.22-7.02-5.22-3.96 0-6.84 1.5-8.64 4.5-1.68 2.88-2.7 6.12-3.06 9.72-.72 6.12-3.78 9.18-9.18 9.18-2.64 0-4.62-.6-5.94-1.8-1.2-1.2-1.8-2.7-1.8-4.5 0-3.36 1.98-6.6 5.94-9.72 4.08-3.24 8.94-5.82 14.58-7.74 5.76-2.04 10.8-3.06 15.12-3.06 5.16 0 9.24 1.62 12.24 4.86 3.12 3.24 4.68 8.1 4.68 14.58v32.4c0 3.72.6 6.54 1.8 8.46s2.94 2.88 5.22 2.88c1.8 0 3.96-.54 6.48-1.62h.36zm-28.44-3.24v-1.8-17.82l-10.8 4.5c-3.12 1.2-5.7 2.64-7.74 4.32-1.92 1.56-2.88 3.84-2.88 6.84 0 2.88.9 5.22 2.7 7.02 1.92 1.68 4.2 2.52 6.84 2.52 2.16 0 4.44-.72 6.84-2.16l5.04-3.42zm106.396-56.52c.24 0 .36.36.36 1.08s-.12 1.08-.36 1.08c-3.6 0-6.72 1.44-9.36 4.32-2.52 2.88-4.86 7.26-7.02 13.14l-20.7 54.9c-4.32 11.52-8.46 20.58-12.42 27.18s-7.98 11.28-12.06 14.04c-4.08 2.88-8.58 4.32-13.5 4.32-3.36 0-5.94-.72-7.74-2.16-1.92-1.32-2.88-3.36-2.88-6.12 0-2.4.78-4.26 2.34-5.58 1.44-1.2 3.24-1.8 5.4-1.8 1.44 0 2.64.18 3.6.54 1.08.48 2.16 1.08 3.24 1.8 1.2.72 2.22 1.26 3.06 1.62.96.36 2.1.54 3.42.54 2.76 0 5.28-1.14 7.56-3.42 2.4-2.16 4.86-5.82 7.38-10.98 2.64-5.16 5.76-12.48 9.36-21.96l-28.44-57.6c-2.64-5.16-4.74-8.58-6.3-10.26-1.44-1.68-3.24-2.52-5.4-2.52-.36 0-.54-.36-.54-1.08s.18-1.08.54-1.08c3.12 0 5.52.06 7.2.18l7.02.18 12.24-.18c1.8-.12 4.26-.18 7.38-.18.36 0 .54.36.54 1.08s-.18 1.08-.54 1.08c-3.24 0-5.64.3-7.2.9-1.44.48-2.16 1.44-2.16 2.88 0 1.08.3 2.16.9 3.24l21.96 45.36 12.06-34.92c1.08-3.12 1.62-5.76 1.62-7.92 0-6.36-4.02-9.54-12.06-9.54-.24 0-.36-.36-.36-1.08s.12-1.08.36-1.08c3.24 0 5.7.06 7.38.18l10.8.18 7.02-.18c1.32-.12 3.42-.18 6.3-.18zM246.22 599.84c.36 0 .54.36.54 1.08s-.18 1.08-.54 1.08c-4.08 0-7.38-.06-9.9-.18l-13.14-.18-15.3.18c-2.16.12-5.04.18-8.64.18-.36 0-.54-.36-.54-1.08s.18-1.08.54-1.08c4.56 0 7.86-.3 9.9-.9s3.42-1.74 4.14-3.42 1.08-4.38 1.08-8.1v-41.58h-61.74v41.58c0 3.6.36 6.3 1.08 8.1.72 1.68 2.1 2.82 4.14 3.42 2.16.6 5.52.9 10.08.9.24 0 .36.36.36 1.08s-.12 1.08-.36 1.08c-4.08 0-7.26-.06-9.54-.18l-14.94-.18-13.14.18c-2.28.12-5.46.18-9.54.18-.24 0-.36-.36-.36-1.08s.12-1.08.36-1.08c4.32 0 7.5-.3 9.54-.9s3.42-1.74 4.14-3.42c.72-1.8 1.08-4.5 1.08-8.1v-83.34c0-3.6-.36-6.24-1.08-7.92s-2.1-2.82-4.14-3.42c-2.04-.72-5.16-1.08-9.36-1.08-.24 0-.36-.36-.36-1.08s.12-1.08.36-1.08l9.54.18 12.96.36c4.2 0 9.18-.12 14.94-.36l9.54-.18c.24 0 .36.36.36 1.08s-.12 1.08-.36 1.08c-4.44 0-7.74.36-9.9 1.08-2.04.72-3.48 1.98-4.32 3.78-.72 1.68-1.08 4.32-1.08 7.92v36.72h61.74v-36.72c0-3.6-.36-6.24-1.08-7.92-.72-1.8-2.16-3.06-4.32-3.78-2.04-.72-5.28-1.08-9.72-1.08-.36 0-.54-.36-.54-1.08s.18-1.08.54-1.08l8.64.18c5.76.24 10.86.36 15.3.36 3.24 0 7.62-.12 13.14-.36l9.9-.18c.36 0 .54.36.54 1.08s-.18 1.08-.54 1.08c-4.32 0-7.5.36-9.54 1.08-1.92.6-3.24 1.74-3.96 3.42s-1.08 4.32-1.08 7.92v83.34c0 3.6.36 6.3 1.08 8.1.72 1.68 2.04 2.82 3.96 3.42 2.04.6 5.22.9 9.54.9zm30.369-88.02c-3.12 0-5.58-.84-7.38-2.52-1.68-1.68-2.52-4.08-2.52-7.2 0-3 .84-5.28 2.52-6.84 1.8-1.68 4.26-2.52 7.38-2.52 3 0 5.34.84 7.02 2.52 1.68 1.56 2.52 3.84 2.52 6.84 0 3.12-.84 5.52-2.52 7.2-1.56 1.68-3.9 2.52-7.02 2.52zM260.029 602c-.36 0-.54-.36-.54-1.08s.18-1.08.54-1.08c4.08 0 6.78-.84 8.1-2.52s1.98-4.98 1.98-9.9v-32.76c0-4.08-.42-7.02-1.26-8.82-.84-1.92-2.28-2.88-4.32-2.88-1.8 0-4.14.72-7.02 2.16h-.18c-.48 0-.84-.3-1.08-.9s-.18-1.02.18-1.26l25.92-12.06.54-.18c.48 0 .96.3 1.44.9.6.48.9.9.9 1.26v3.78c-.24 5.04-.36 10.98-.36 17.82v32.94c0 4.92.66 8.22 1.98 9.9 1.44 1.68 4.2 2.52 8.28 2.52.36 0 .54.36.54 1.08s-.18 1.08-.54 1.08c-3 0-5.4-.06-7.2-.18l-10.44-.18-10.44.18c-1.68.12-4.02.18-7.02.18zm94.14-111.06c-.24-.6.84-1.08 3.24-1.44 2.52-.48 5.16-.72 7.92-.72 2.64 0 5.22.24 7.74.72 2.52.36 3.66.84 3.42 1.44-2.4 9.72-4.26 20.34-5.58 31.86-1.2 11.4-2.34 25.26-3.42 41.58l-.18 3.6c0 .48-.78.72-2.34.72-1.68 0-2.52-.24-2.52-.72-.84-16.8-1.86-31.26-3.06-43.38-1.08-12.24-2.82-23.46-5.22-33.66zm10.08 113.04c-3 0-5.4-.9-7.2-2.7s-2.7-4.2-2.7-7.2c0-2.88.9-5.16 2.7-6.84s4.2-2.52 7.2-2.52c3.12 0 5.52.84 7.2 2.52s2.52 3.96 2.52 6.84c0 3.12-.84 5.58-2.52 7.38-1.68 1.68-4.08 2.52-7.2 2.52z" fill="#4971ff"/></svg>
